public/img/common/icon-telegram.svg

<svg fill="none" height="42" viewBox="0 0 43 42" width="43" xmlns="http://www.w3.org/2000/svg" xmlns:xlink="http://www.w3.org/1999/xlink"><linearGradient id="a" gradientUnits="userSpaceOnUse" x1="248.081" x2="300.313" y1="145.904" y2="264.761"><stop offset="0" stop-color="#003"/><stop offset="1" stop-color="#fff"/></linearGradient><rect fill="#fff" height="42" rx="10" width="42" x=".277344"/><path d="m17.174 30.7745c-.6758 0-.561-.2552-.7941-.8987l-1.9873-6.5405 15.2976-9.0753" fill="#c8daea"/><path d="m17.1738 30.7747c.5215 0 .752-.2385 1.043-.5215l2.7814-2.7045-3.4694-2.0922" fill="#a9c9dd"/><path d="m17.5293 25.4589 8.4068 6.211c.9593.5294 1.6516.2553 1.8906-.8906l3.422-16.1256c.3503-1.4046-.5355-2.0417-1.4532-1.6251l-20.09376 7.7481c-1.37159.5501-1.3636 1.3154-.25002 1.6563l5.15648 1.6094 11.9379-7.5314c.5636-.3418 1.0808-.158.6563.2187" fill="url(#a)"/></svg>

<svg width="43" height="42" viewBox="0 0 43 42" fill="none" xmlns="http://www.w3.org/2000/svg">
<rect x="0.277344" width="42" height="42" rx="10" fill="white"/>
<path d="M17.174 30.7745C16.4982 30.7745 16.613 30.5193 16.3799 29.8758L14.3926 23.3353L29.6902 14.26" fill="#C8DAEA"/>
<path d="M17.1738 30.7747C17.6953 30.7747 17.9258 30.5362 18.2168 30.2532L20.9982 27.5487L17.5288 25.4565" fill="#A9C9DD"/>
<path d="M17.5293 25.4589L25.9361 31.6699C26.8954 32.1993 27.5877 31.9252 27.8267 30.7793L31.2487 14.6537C31.599 13.2491 30.7132 12.612 29.7955 13.0286L9.70174 20.7767C8.33015 21.3268 8.33814 22.0921 9.45172 22.433L14.6082 24.0424L26.5461 16.511C27.1097 16.1692 27.6269 16.353 27.2024 16.7297" fill="url(#paint0_linear_557_283)"/>
<defs>
<linearGradient id="paint0_linear_557_283" x1="248.081" y1="145.904" x2="300.313" y2="264.761" gradientUnits="userSpaceOnUse">
<stop stop-color="#000033"/>
<stop offset="1" stop-color="white"/>
</linearGradient>
</defs>
</svg>
